app/client/src/assets/icons/blueprintjs/20px/add-row-top.svg

<svg xmlns="http://www.w3.org/2000/svg" xml:space="preserve" viewBox="0 0 20 20"><path fill-rule="evenodd" d="M7 8h2v2c0 .55.45 1 1 1s1-.45 1-1V8h2c.55 0 1-.45 1-1s-.45-1-1-1h-2V4c0-.55-.45-1-1-1s-1 .45-1 1v2H7c-.55 0-1 .45-1 1s.45 1 1 1zm12-8H1C.45 0 0 .45 0 1v18c0 .55.45 1 1 1h18c.55 0 1-.45 1-1V1c0-.55-.45-1-1-1zm-1 18H2v-5h16v5zm0-6H2V2h16v10z" clip-rule="evenodd"/></svg>

<?xml version="1.0" encoding="utf-8"?>
<!-- Generator: Adobe Illustrator 18.0.0, SVG Export Plug-In . SVG Version: 6.00 Build 0)  -->
<svg version="1.1" id="Layer_1" xmlns="http://www.w3.org/2000/svg" xmlns:xlink="http://www.w3.org/1999/xlink" x="0px" y="0px"
	 viewBox="0 0 20 20" enable-background="new 0 0 20 20" xml:space="preserve">
<g id="add_column_top">
	<g>
		<path fill-rule="evenodd" clip-rule="evenodd" d="M7,8h2v2c0,0.55,0.45,1,1,1s1-0.45,1-1V8h2c0.55,0,1-0.45,1-1c0-0.55-0.45-1-1-1
			h-2V4c0-0.55-0.45-1-1-1S9,3.45,9,4v2H7C6.45,6,6,6.45,6,7C6,7.55,6.45,8,7,8z M19,0H1C0.45,0,0,0.45,0,1v18c0,0.55,0.45,1,1,1h18
			c0.55,0,1-0.45,1-1V1C20,0.45,19.55,0,19,0z M18,18H2v-5h16V18z M18,12H2V2h16V12z"/>
	</g>
</g>
</svg>
